X:1
T:X. La cathédrale engloutie
T:X. La cathédrale engloutie
T:from Préludes Book I
T:Claude Debussy
C:Claude Debussy
%%score { ( 1 2 6 7 ) | ( 3 4 5 ) }
L:1/8
Q:1/4=66
M:6/4
K:C
V:1 treble nm="鋼琴" snm="Pno."
V:2 treble 
V:6 treble 
V:7 treble 
V:3 bass 
V:4 bass 
V:5 bass 
V:1
!pp!"^Profondément calme (Dans une brume doucement sonore)""^""^""^="!8va(! [d'g'd'']12!8va)! | %1
 z12 |!8va(! [d'g'd'']12!8va)! | z12 |!8va(! [d'g'd'']12!8va)! | %5
 [ee']2 !tenuto![ee']4- [ee']2 !tenuto![ee']4- |"^Doux et fluide" [ee']4 [ee']8 | %7
 !courtesy!^c'4 ^d'4 [^g^g']4 | !tenuto![ee']8 !tenuto![ee']4- | [ee']4 !tenuto![ee']8 | %10
!<(! !tenuto![ee']8 !tenuto![ee']4- |!mf! [ee']4!<)!!>(! !tenuto![ee']8!>)! |!pp! [ebe']12 | %13
!pp!!8va(! [be'b']12!8va)! | [be'b']2 [eae']2 [dgd']2 [Beb]2 [EAe]2 [DGd]2 | %15
[K:bass]"^Peu à peu sortant de la brume"!pp! z2 ([^D,B,^D^F]2 [^F,^CD^G]2[K:treble] [^D^FB^d]2[K:bass] [F,CDG]2 [D,B,DF]2) | %16
[K:treble]!p! z2[K:bass]!pp! ([^D,B,^D^F]2 [^F,^CD^G]2[K:treble] [^D^FB^d]2[K:bass] [F,CDG]2 [D,B,DF]2) | %17
[K:treble]!p! z2[K:bass]!pp! ([^D,B,^D^F]2 [^F,^CD^G]2[K:treble] [^D^FB^d]2)[K:bass] ([F,CDG]2 [D,B,DF]2 | %18
[K:treble]!p! [_e_b_e']12) | %19
"^Augmentez progressivement (Sans presser)"[Q:1/4=64]"_cresc." [G_B_eg]2 ([_B,FGB]2[Q:1/4=68] [C_EGc]2 [FGBf]2)[Q:1/4=72] ([B,FGB]2 [CEGc]2 | %20
[Q:1/4=76] [G_Bg]2)[Q:1/4=80] ([_B,FGB]2 [C_EGc]2 [GBg]2)[Q:1/4=68] ([B,FGB]2[Q:1/4=56] [CEGc]2 | %21
[Q:1/4=112] [gd'g']12) | z4 z2!8va(! !tenuto![d'd'']2 !tenuto![c'c'']2 !tenuto![bb']2 | %23
 !tenuto![aa']2 !tenuto![bb']2 !tenuto![aa']2 !tenuto![gg']2 !tenuto![ff']2 !tenuto![ee']2 | %24
 z4!8va)!!f!!<(! [A,DF]8 | [Ad]4 [G,G]4 [A,A]4 | %26
[Q:1/4=108] [Ad]4[Q:1/4=104] z4!<)![K:bass][Q:1/4=100] !>!!tenuto!G,,4[Q:1/4=88] | %27
[K:treble] z4!ff!"^Sonore sans dureté"[Q:1/4=112] ([CEGc]4 [DFAd]4 | %28
 [GBdg]6 [FAcf]2 [EGBe]2 [DFAd]2 | [DFAd]4 [A,CEA]4 [EGBe]4- | [EGBe]2 [FAcf]2 [DFAd]6 [CEGc]2 | %31
 [CEGc]8) ([A,CEA]4 | [_B,DF_B]4 [DFAd]4 [FAcf]4 | [CEGc]8) ([A,CEA]4 | %34
 [_B,DF_B]4 [DFAd]4 [FAcf]4 |!<(! [G_Bdg]6 [FAcf]2 [GBdg]2 [Bdf_b]2 | [G_Bdg]8 [Acea]4 | %37
 [FAcf]8)!<)!!fff!!>(! (([FAcf]4- | [FAcf]4 [DFAd]4 [EGBe]4 | [CEGc]12-)!>)! | [CEGc]12) | %41
!p! z4!8va(! !tenuto![c'd'c''d'']4- [c'd'c''d'']2!8va)! z2 | %42
!p! z4!8va(! !tenuto![c'd'c''d'']4- [c'd'c''d'']2!8va)! z2 | %43
!pp! z4!8va(! !tenuto![c'd'c''d'']4- [c'd'c''d'']2!8va)! z2 | %44
!pp! z4!8va(! !tenuto![c'd'c''d'']4- [c'd'c''d'']2!8va)! z2 | z12 || %46
[K:E][K:bass]"^Un peu moins lent (Dans une expression allant grandissant)"[Q:1/4=104]!pp! (E,8 C,4- | %47
 C,4 D,4 G,4 | E,4 C,4 G,,4- | G,,4 ^A,,4 D,4 | B,,4)!<(! (G,4 ^A,4 | D4 C4 D4!<)! | %52
 B,4)[K:treble]!pp! ([Gg]4 [^A^a]4 | [dd']4 [cc']4 [dd']4) |!pp! ([f=ac'f']4 [dd']4 [cc']4- | %55
!<(! [cc']2 [dd']2 [ff']4 [dd']2 [ff']2)!<)! |!p! ([gc'g']4!<(! [dd']4 [cc']4- | %57
 [cc']2 [dd']2 [gg']4 [ff']2 [gg']2)!<)! |!f!!8va(! [d'f']4 [c'd']8 | %59
!<(! [bc'd'b']8 [ff']2 [aa']2!<)! |!ff! ([c'c'']4 [gg']4 [ff']4 | %61
!>(! [bb']4!>)!!f! [ff']4)!8va)!"_molto dim." (!tenuto![D^^F^Acd]4 | %62
 !tenuto![C^EGBc]4 !tenuto![B,D^F=AB]4 !tenuto![A,C=E=GA]2 !tenuto![C^E^GBc]2 | %63
 !tenuto![G,^B,DFG]8)[K:bass]!p!!>(! ([D,^^F,^A,CD]4!>)! | %64
[K:treble]!pp! [G,^B,DFG]8)!p!!>(! ([C^EG=Bc]4!>)! |!pp! [G,^B,DFG]12- | [G,B,DFG]12) | %67
[K:bass] z4 !tenuto!=C,,8 | z4 !tenuto!=C,,8- |!pp! C,,=D,,=C,,D,, C,,D,,C,,D,, C,,D,,C,,D,, | %70
!>(! z12!>)! || %71
[K:C][Q:1/4=112]"^au Mouvt" z4!pp!"_Comme un écho de la phrase\nentendue précédemment\n" ([C,E,G,C]4 [D,F,A,D]4 | %72
 [G,B,DG]6 [F,A,CF]2 [E,G,B,E]2 [D,F,A,D]2 | [D,F,A,D]4 [A,,C,E,A,]4 [E,G,B,E]4- | %74
 [E,G,B,E]2 [F,A,CF]2 [D,F,A,D]6 [C,E,G,C]2 | [C,E,G,C]8) ([A,,C,E,A,]4 | %76
 [_B,,D,F,_B,]4 [D,F,A,D]4 [F,A,CF]4 | [C,E,G,C]8) ([A,,C,E,A,]4 | %78
 [_B,,D,F,_B,]4 [D,F,A,D]4 [F,A,CF]4 | [G,_B,DG]6!<(! [F,A,CF]2 [G,B,DG]2 [B,DF_B]2!<)! | %80
!p! [G,_B,DG]8!>(! [A,CEA]4!>)! |!p! [F,A,CF]12) | %82
!pp![Q:1/4=106] ([D,F,A,D]6[Q:1/4=86] [E,G,B,E]6)[Q:1/4=100][Q:1/4=92][Q:1/4=80][Q:1/4=68] | %83
[K:treble][Q:1/4=66]"^Dans la sonorité du début" z2!pp! ([DGcd]2 [EAde]2 [Bceb]2 [dgc'd']2 [ead'e']2) | %84
!8va(! [g'c''d''g'']12!8va)! |[Q:1/4=62]!8va(! [g'c''d''g'']4!8va)![Q:1/4=58] !tenuto![Gceg]8 | %86
[Q:1/4=54]!8va(! [g'c''d''g'']4!8va)![Q:1/4=50] !tenuto![Gceg]8- |[Q:1/4=108] [Gceg]12- | %88
 [Gceg]2 z2 z4 z4 |] %89
V:2
!8va(! z2!8va)! ([DGd]2 [EAe]2 [Beb]2 [dgd']2 [eae']2-){x} | x12 | %2
!8va(! z2!8va)! ([DGd]2 [EAe]2 [Beb]2 [dgd']2 [eae']2-){x} | x12 | %4
!8va(! z2!8va)! ([DGd]2 [EAe]2 [Beb]2 [dgd']2 [ee']2- | x12 | x4 e'4 ^c'4- | !tenuto![ee']12 | %8
 e'4 ^c'4 ^g4- | g4 ^a4 ^d'4 | b4) ^g4 ^a4 | ^d'4 ^c'4 d'4 | x12 | %13
!8va(! z2!8va)!"_(sans nuances)" [DGd]2 [EAe]2 [Beb]2 [dgd']2 [eae']2 | x12 | %15
[K:bass] x6[K:treble] x2[K:bass] x4 |[K:treble] x2[K:bass] x4[K:treble] x2[K:bass] x4 | %17
[K:treble] x2[K:bass] x4[K:treble] x2[K:bass] x4 | %18
[K:treble] z2 ([_B,=F=G_B]2 [C_EGc]2 [FGBf]2) [B,FGB]2 [CEGc]2 | x12 | x12 | %21
 z4!f! !tenuto![Gg]4 !tenuto![Aa]4 | x6!8va(! x2 [f'a']4 | [d'f']8 x4 | %24
 !tenuto![dad']4!8va)! [G,G]4 [A,A]4 | [CDFG]4 [A,CDF]8 | [CDFG]4 x4[K:bass] x4 |[K:treble] x12 | %28
 x12 | x12 | x12 | x12 | x12 | x12 | x12 | x12 | x12 | x12 | x12 | z4!f! C4 D4 | G4!>(! c4 d4!>)! | %41
 [Gcdg]12 | [Gcdg]12 | [Gcdg]12 | [Gcdg]12 | x12 ||[K:E][K:bass] x12 | x12 | x12 | x12 | B,,4 E,8 | %51
 [E,G,^A,]12 | [B,,E,G,]4[K:treble] e8 | [g^a]12 | z4 [fa]8- | [fa]4 [ac']4 [fa]4 | z4 [fa]8- | %57
 [fa]4 c'4 d'4 |!8va(! [c'c'']4 [gg']4 [ff']4 | x8 [c'd']4 | [d'f']4 [c'd']8 | [c'd']8!8va)! x4 | %62
 x12 | x8[K:bass] x4 |[K:treble] x12 | x12 | x12 |[K:bass] x12 | x12 | x12 | x12 ||[K:C] x12 | %72
 x12 | x12 | x12 | x12 | x12 | x12 | x12 | x12 | x12 | x12 | x12 |[K:treble] x12 | %84
!8va(! z2!8va)! ([DGcd]2 [EAde]2 [Bceb]2 [dgc'd']2 [ead'e']2) |!8va(! x4!8va)! x8 | %86
!8va(! x4!8va)! x8 | x12 | x12 |] %89
V:3
"^""^""^="!ped! z2 ([D,G,]2 [E,A,]2 [B,E]2 [DG]2 [EA]2-){x} | %1
 z2 (.D,,2 .G,,,2- G,,,2 !tenuto!D,,4)!ped-up! |!ped! z2 ([D,G,]2 [E,A,]2 [B,E]2 [DG]2 [EA]2-){x} | %3
 z2 (.C,,2 .F,,,2- .F,,,2 !tenuto!C,,4)!ped-up! | %4
!ped! z2 [D,G,]2 [E,A,]2 [B,E]2[K:treble] [DG]2 E2-!ped-up! | E2 !tenuto!E4- E2 !tenuto!E4- | %6
 E4!ped! E8!ped-up! |!ped! !courtesy!^C4 [^D^d]4 ^G4!ped-up! | %8
!ped! !tenuto!E8!ped-up!!ped! [^G,^G]4- | [G,G]4!ped-up!!ped! [^A,^A]4 [^D^d]4!ped-up! | %10
!ped! !tenuto!E8!ped-up!!ped! [^A,^A]4 | [^D^d]4!ped-up!!ped! [^C^c]4 [Dd]4!ped-up! | %12
!ped! z2 z2[K:bass] z2 !tenuto!B,,6!ped-up! | %13
!ped! z2 ([G,,D,A,]2 [A,,E,B,]2- [A,,E,B,]2 [G,,D,A,]2 [A,,E,B,]2-!ped-up! | %14
!ped! [A,,E,B,]2) ([G,,D,A,]2 [A,,E,B,]2- [A,,E,B,]2 [G,,D,A,]2 [A,,E,B,]2)!ped-up! | %15
!ped! (3(B,,,^F,,B,,, (3F,,B,,,F,, (3B,,,F,,^F, (3^G,F,B,,- (3B,,F,,B,,, (3F,,B,,,F,,)!ped-up! | %16
!ped! (3z (B,,,,B,,, (3^F,,B,,,F,, (3B,,,F,,^F, (3^G,F,B,,- (3B,,F,,B,,, (3F,,B,,,F,,)!ped-up! | %17
!ped! (3z (B,,,,B,,, (3^F,,B,,,F,, (3B,,,F,,^F, (3^G,F,)(B,,- (3B,,F,,B,,, (3F,,B,,,F,,)!ped-up! | %18
!ped! (3(_E,,,_E,,_B,,- (3B,,B,,_E,- (3E,E,_B,)"_marqué" (D/C/B,) (3z B,,E,,- (3E,,_B,,,E,,,-!ped-up! | %19
 (3(!tenuto!F/_E/D/C) (3z _E,_B,,- (3B,,_E,,"^"_B,,,{_E,,,} (!tenuto!D/C/_B,) (3z B,,E,,- (3E,,B,,,E,,, | %20
 ([F,F]/[_E,_E]/[D,D]/[C,C]/ (3z [_B,,_B,][_E,,E,]- (3[E,,E,][_B,,,B,,][_E,,,E,,]) ([F,F]/[E,E]/[D,D]/[C,C]/ (3z [B,,B,][E,,E,]- (3[E,,E,][B,,,B,,][E,,,E,,]) | %21
!ped! [G,,,D,,G,,]12!ped-up! |[K:treble]!ped! [FGAc]4 [CDF]8!ped-up! | %23
!ped! [GAcd]4 [CDF]8!ped-up! | %24
 [DFGAc]4[K:bass] z2 !>!!tenuto![D,,D,]2 !>!!tenuto![C,,C,]2 !>!!tenuto![B,,,B,,]2 | %25
 !>!!tenuto![A,,,A,,]2 !>!!tenuto![B,,,B,,]2 !>!!tenuto![A,,,A,,]2 !>!!tenuto![G,,,G,,]2 !>!!tenuto![F,,,F,,]2 !>!!tenuto![E,,,E,,]2 | %26
 !>!!tenuto![D,,,D,,]2 !>!!tenuto![C,,C,]2 !>!!tenuto![A,,,A,,]2 !>!!tenuto![G,,,G,,]2 !>!!tenuto![F,,,F,,]2 !>!!tenuto![D,,,D,,]2 | %27
!8vb(!!ped! z4!8vb)! ([G,,C,E,G,]4 [A,,D,F,A,]4 | [D,G,B,D]6 [C,F,A,C]2 [B,,E,G,B,]2 [A,,D,F,A,]2 | %29
 [A,,D,F,A,]4 [E,,A,,C,E,]4 [B,,E,G,B,]4- | [B,,E,G,B,]2 [C,F,A,C]2 [A,,D,F,A,]6 [G,,C,E,G,]2 | %31
 [G,,C,E,G,]8)!ped-up!!8vb(!!ped! ([E,,A,,C,E,]4!8vb)! | [F,,_B,,D,F,]4 [A,,D,F,A,]4 [C,F,A,C]4 | %33
 [G,,C,E,G,]8)!ped-up!!8vb(!!ped! ([E,,A,,C,E,]4!8vb)! | [F,,_B,,D,F,]4 [A,,D,F,A,]4 [C,F,A,C]4 | %35
 [D,G,_B,D]6!ped-up!!8vb(! [C,F,A,C]2!8vb)! [D,G,B,D]2 [F,B,DF]2 | %36
 [D,G,_B,D]8!8vb(! [E,A,CE]4!8vb)! | [C,F,A,C]8)!8vb(! ([C,F,A,C]4-!8vb)! | %38
 [C,F,A,C]4 [A,,D,F,A,]4 [B,,E,G,B,]4 | [G,,C,E,G,]12-!8vb(!!8vb)! | [G,,C,E,G,]12) | %41
!ped! [G,CD]12!ped-up! |!ped! [G,CD]12!ped-up! |!ped! [G,CD]12!ped-up! |!ped! [G,CD]12!ped-up! | %45
 [A,,,A,,]4!ped! !tenuto![^G,,,^G,,]8- ||[K:E] [G,,,G,,]12- | [G,,,G,,]12- | G,,4 z4 z4!ped-up! | %49
!ped! G,,,12- | G,,,12- | G,,,12!ped-up! |!ped! G,,,12- |"^" G,,,12!ped-up! | %54
[K:bass]!ped! z4 ([C,C]4 [D,D]4 | [F,A,CF]4 [D,D]4 [C,C]4)!ped-up! |!ped! z4 ([C,C]4 [D,D]4 | %57
 [G,A,CDG]4 [D,D]4"^" [C,C]4)({G,,,-}!ped-up! |"^"!ped! [CDFAc]4) [G,G]4 [F,F]4!ped-up! | %59
!ped! z2[K:bass] (G,,,2 G,,2 D,2 [F,F]2"^" [A,A]2)({G,,,-}!ped-up! | %60
"^"!ped! [CDFAc]4) ([G,G]4 [F,F]4!ped-up! | %61
!ped! [B,B]4 [F,F]4)!ped-up![K:bass] (!tenuto![D,^A,C]4 | %62
 !tenuto![C,G,B,]4 !tenuto![B,,F,=A,]4 !tenuto![A,,E,=G,]2 !tenuto![C,^G,B,]2 | %63
 !tenuto![G,,D,F,]8) ([D,,^A,,C,]4 | [G,,D,F,]8) ([C,G,=B,]4 |!ped! [G,,D,F,]12- | %66
 [G,,D,F,]12)!ped-up! | !tenuto![F,,,G,,,]12 | !tenuto![F,,,G,,,]12 |!ped! [F,,,G,,,]12 | %70
 =C,,=D,,C,,D,, C,,D,,C,,D,, C,,D,,C,,D,,!ped-up! || %71
[K:C]"_Flottant et sourd"!ped!!8vb(! (C,,D,,C,,G,,,C,,,G,,,C,,D,,C,,G,,,C,,,G,,, | %72
C,,D,,C,,G,,,C,,,G,,,C,,D,,C,,G,,,C,,,G,,,) | (C,,D,,C,,G,,,C,,,G,,,C,,D,,C,,G,,,C,,,G,,, | %74
 C,,D,,C,,G,,,C,,,G,,,C,,D,,C,,G,,,C,,,G,,,) | %75
 (C,,D,,C,,G,,,C,,,G,,,C,,D,,!ped-up!!ped!C,,G,,,C,,,G,,, | %76
C,,D,,C,,G,,,C,,,G,,,C,,D,,C,,G,,,C,,,G,,,) | %77
 (C,,D,,C,,G,,,C,,,G,,,C,,D,,!ped-up!!ped!C,,G,,,C,,,G,,, | %78
C,,D,,C,,G,,,C,,,G,,,C,,D,,C,,G,,,C,,,G,,,) | (C,,D,,C,,G,,,C,,,G,,,C,,D,,C,,G,,,C,,,G,,, | %80
 C,,D,,C,,G,,,C,,,G,,,C,,D,,!ped-up!!ped!C,,G,,,C,,,G,,,) | %81
 (C,,D,,C,,G,,,C,,,G,,,C,,D,,C,,G,,,C,,,G,,,!ped-up! | %82
!ped!C,,D,,C,,G,,,C,,,G,,,C,,D,,C,,G,,,C,,,G,,,)!ped-up! | %83
!ped! z2!8vb)! ([D,G,C]2 [E,A,D]2 [B,CG]2[K:treble] [DGc]2 [EAd]2)!ped-up! | %84
[K:bass]!ped! z2 ([D,G,C]2 [E,A,D]2 [B,CG]2[K:treble] [DGc]2 [EAd]2)!ped-up! | %85
[K:bass]"_(... La  cathédrale engloutie)"!ped! ([G,CDG]4 [E,G,CE]8)!ped-up! | %86
!ped! ([G,CDG]4 [E,G,CE]8- | [E,G,CE]12- | [E,G,CE]2) z2 z4 z4!ped-up! |] %89
V:4
 [G,,,D,,G,,]12- | [G,,,D,,G,,]12 | [F,,,C,,F,,]12- | [F,,,C,,F,,]12 | [E,,,B,,,E,,]12[K:treble] | %5
 x12 | x4 E4 [^C-^c]4 | !tenuto!E12 | E4 [^C^c]4 !tenuto!E4- | E4 E8 | %10
 [B,B]4 ([^G,^G]4 !tenuto!E4- | E4 !tenuto!E8 | z2 z2[K:bass] [E,,,E,,]2- [E,,,E,,]2 [D,,,D,,]4) | %13
 [C,,,G,,,C,,]12 | [C,,,G,,,C,,]12 | !tenuto!B,,,,12 | x6 B,2 x4 | x6 B,2 x4 | !tenuto!_E,,,12 | %19
 [G,_B,]2 x4 [_E,G,]2 x4 | [G,_B,]2 x4 [G,B,]2 x4 | z4 (!tenuto!G,4 !tenuto!A,4 | %22
[K:treble] !tenuto!D4) ([G,G]4 [A,A]4 | [DF]4) [G,G]4 [A,A]4 | x4[K:bass] x8 | x12 | x12 | %27
!8vb(! !>!C,,,12-!8vb)! | C,,12- | C,,12- | C,,12- | C,,4!8vb(! !>!C,,,8-!8vb)! | C,,12- | %33
 C,,4!8vb(! !>!C,,,8-!8vb)! | C,,12- | C,,4!8vb(! !>!C,,,8-!8vb)! | C,,4!8vb(! !>!C,,,8-!8vb)! | %37
 C,,4!8vb(! !>!C,,,8-!8vb)! | C,,12- | C,,4!8vb(! !>!C,,,8-!8vb)! | C,,12 | %41
 z4 !tenuto![_B,,,_B,,]4- [B,,,B,,]2 z2 | z4 !tenuto![_B,,,_B,,]4- [B,,,B,,]2 z2 | %43
 z4 !tenuto![_A,,,_A,,]4- [A,,,A,,]2 z2 | z4 [_A,,,_A,,]8- | x12 ||[K:E] x12 | x12 | G,,,12 | x12 | %50
 z4 (G,,4 ^A,,4 | D,4 C,4 D,4) | z4 (G,4 ^A,4 | D4 C4 D4) |[K:bass] [G,,,G,,]12- | [G,,,G,,]12 | %56
 [G,,,G,,]12 | z4 x8 | G,,,12 | [B,CDFB]8[K:bass] [A,CD]4 | G,,,12 | [CDF]8[K:bass] x4 | x12 | %63
 x12 | x12 | z4 !tenuto!G,,,8- | G,,,4 !tenuto!G,,,8 | x12 | x12 | x12 | x12 ||[K:C]!8vb(! x12 | %72
 x12 | x12 | x12 | x12 | x12 | x12 | x12 | x12 | x12 | x12 | x12 | C,,,12!8vb)![K:treble] | %84
[K:bass] [C,,,G,,,C,,]12[K:treble] |[K:bass] z8 [C,,,G,,,C,,]4 | z8 [C,,,G,,,C,,]4- | %87
 [C,,,G,,,C,,]12- | [C,,,G,,,C,,]2 x10 |] %89
V:5
 x12 | x12 | x12 | x12 | x8[K:treble] x4 | x12 | x12 | x12 | x12 | x12 | x12 | x12 | %12
 [B,EB]12[K:bass] | x12 | x12 | x6 B,2 x4 | !tenuto![^F,^G,B,^F^G]12 | !tenuto![^F,^G,B,^F^G]12 | %18
 x6 !tenuto![_E,G,]2 x4 | !courtesy!_E,,,12 | x12 | x4 [CD]8 |[K:treble] x12 | x12 | %24
 x4[K:bass] x8 | x12 | x12 |!8vb(! x4!8vb)! x8 | x12 | x12 | x12 | x4!8vb(! x4!8vb)! x4 | x12 | %33
 x4!8vb(! x4!8vb)! x4 | x12 | x4!8vb(! x2!8vb)! x6 | x4!8vb(! x4!8vb)! x4 | x4!8vb(! x4!8vb)! x4 | %38
 x12 | x4!8vb(! x8!8vb)! | x12 | x12 | x12 | x12 | x12 | x12 ||[K:E] x12 | x12 | x12 | x12 | x12 | %51
 x12 | x4 E8 | [EG^A]12 |[K:bass] x4 [F,A,]8 | x4 [F,A,C]8 | x4 [F,A,]8 | x4 [F,A,C]8 | %58
 x4 [A,CD]8 | x2[K:bass] x10 | x4 [A,CD]8 | x8[K:bass] x4 | x12 | x12 | x12 | x12 | x12 | x12 | %68
 x12 | x12 | x12 ||[K:C]!8vb(! x12 | x12 | x12 | x12 | x12 | x12 | x12 | x12 | x12 | x12 | x12 | %82
 x12 | x2!8vb)! x6[K:treble] x4 |[K:bass] x8[K:treble] x4 |[K:bass] x12 | x12 | x12 | x12 |] %89
V:6
!8va(! x2!8va)! x10 | x12 |!8va(! x2!8va)! x10 | x12 |!8va(! x2!8va)! x10 | x12 | x12 | x12 | x12 | %9
 x12 | x12 | x12 | x12 |!8va(! x2!8va)! x10 | x12 |[K:bass] x6[K:treble] x2[K:bass] x4 | %16
[K:treble] !tenuto![^f^g^d'^g']12[K:bass][K:treble][K:bass] | %17
[K:treble] !tenuto![^f^g^d'^g']12[K:bass][K:treble][K:bass] |[K:treble] x12 | x12 | x12 | %21
 x4 [cd]8 | x6!8va(! x6 | x12 | x4!8va)! x8 | x12 | x8[K:bass] x4 |[K:treble] x12 | x12 | x12 | %30
 x12 | x12 | x12 | x12 | x12 | x12 | x12 | x12 | x12 | x12 | x12 | x4!8va(! x6!8va)! x2 | %42
 x4!8va(! x6!8va)! x2 | x4!8va(! x6!8va)! x2 | x4!8va(! x6!8va)! x2 | x12 ||[K:E][K:bass] x12 | %47
 x12 | x12 | x12 | x12 | x12 | x4[K:treble] x8 | x12 | x12 | x12 | x12 | x12 |!8va(! x12 | x12 | %60
 x12 | x8!8va)! x4 | x12 | x8[K:bass] x4 |[K:treble] x12 | x12 | x12 |[K:bass] x12 | x12 | x12 | %70
 x12 ||[K:C] x12 | x12 | x12 | x12 | x12 | x12 | x12 | x12 | x12 | x12 | x12 | x12 | %83
[K:treble] x12 |!8va(! x2!8va)! x10 |!8va(! x4!8va)! x8 |!8va(! x4!8va)! x8 | x12 | x12 |] %89
V:7
!8va(! x2!8va)! x10 | x12 |!8va(! x2!8va)! x10 | x12 |!8va(! x2!8va)! x10 | x12 | x12 | x12 | x12 | %9
 x12 | x12 | x12 | x12 |!8va(! x2!8va)! x10 | x12 |[K:bass] x6[K:treble] x2[K:bass] x4 | %16
[K:treble] x2[K:bass] x4[K:treble] x2[K:bass] x4 | %17
[K:treble] x2[K:bass] x4[K:treble] x2[K:bass] x4 |[K:treble] x12 | x12 | x12 | x12 | %22
 [dgc'd']8!8va(! x4 | x12 | x4!8va)! x8 | x12 | x8[K:bass] x4 |[K:treble] x12 | x12 | x12 | x12 | %31
 x12 | x12 | x12 | x12 | x12 | x12 | x12 | x12 | x12 | x12 | x4!8va(! x6!8va)! x2 | %42
 x4!8va(! x6!8va)! x2 | x4!8va(! x6!8va)! x2 | x4!8va(! x6!8va)! x2 | x12 ||[K:E][K:bass] x12 | %47
 x12 | x12 | x12 | x12 | x12 | x4[K:treble] x8 | x12 | x12 | x12 | x12 | x12 |!8va(! x12 | x12 | %60
 x12 | x8!8va)! x4 | x12 | x8[K:bass] x4 |[K:treble] x12 | x12 | x12 |[K:bass] x12 | x12 | x12 | %70
 x12 ||[K:C] x12 | x12 | x12 | x12 | x12 | x12 | x12 | x12 | x12 | x12 | x12 | x12 | %83
[K:treble] x12 |!8va(! x2!8va)! x10 |!8va(! x4!8va)! x8 |!8va(! x4!8va)! x8 | x12 | x12 |] %89

